X: 5
T: The Hession
P: piffero primo a0465
O: strube
%R: march
F: http://ancients.sudburymuster.org/mus/ssp/pdf/struberevF.pdf
Z: 2019 John Chambers <jc:trillian.mit.edu>
M: 2/4
L: 1/16
K: G
c2 |\
B2e2 d>ed>c | B2e2 d3c | B2e2 d>ed>c | B2e2 d2 :: e2 | d>cB>A G>FG>A | B2e2 d3e |
e>cB>A G>FG>A | B2A2 G2 :: D2 | G>BA>G F>EF>D | G2A2 B3G | cc (3(cBA) BB (3(BAG) |
d2D2 G2 :: B2 | cc (3(cdc) c3B | dd (3(dcB) A3B | cc (3(cBA) BB (3(BAG) | d2D2 G2 :|

%%slurgraces 1
%%graceslurs 1
%%center (7-beat roll)


